static/img/in-field/nav-state-white-default.svg

<svg fill="none" height="65" viewBox="0 0 279 65" width="279" xmlns="http://www.w3.org/2000/svg"><path d="m.75.875h277v63h-277z" fill="#fff"/><path clip-rule="evenodd" d="m131.25 27.0417v-2.6667h24v2.6667zm0 6.6666h24v-2.6666h-24zm0 6.6667h24v-2.6667h-24z" fill="#252a2e" fill-rule="evenodd"/><path d="m.75.875h277v63h-277z" stroke="#a3a6b1"/></svg>

<svg width="279" height="65" viewBox="0 0 279 65" fill="none" xmlns="http://www.w3.org/2000/svg"><rect x=".75" y=".875" width="277" height="63" fill="#fff"/><path fill-rule="evenodd" clip-rule="evenodd" d="M131.25 27.0417V24.375H155.25V27.0417H131.25ZM131.25 33.7083H155.25V31.0417H131.25V33.7083ZM131.25 40.375H155.25V37.7083H131.25V40.375Z" fill="#252A2E"/><rect x=".75" y=".875" width="277" height="63" stroke="#A3A6B1"/></svg>
